austria/municipalities/40606.svg

<?xml version="1.0" encoding="UTF-8"?>
<!DOCTYPE svg PUBLIC "-//W3C//DTD SVG 1.1//EN" "http://www.w3.org/Graphics/SVG/1.1/DTD/svg11.dtd">
<svg xmlns="http://www.w3.org/2000/svg" version="1.1" width="166px" height="207px" style="shape-rendering:geometricPrecision; text-rendering:geometricPrecision; image-rendering:optimizeQuality; fill-rule:evenodd; clip-rule:evenodd" xmlns:xlink="http://www.w3.org/1999/xlink">
<g><path style="opacity:1" fill="#000000" d="M -0.5,-0.5 C 54.8333,-0.5 110.167,-0.5 165.5,-0.5C 165.5,43.8333 165.5,88.1667 165.5,132.5C 157.932,172.068 134.599,196.735 95.5,206.5C 86.8333,206.5 78.1667,206.5 69.5,206.5C 30.0061,196.67 6.67281,171.67 -0.5,131.5C -0.5,87.5 -0.5,43.5 -0.5,-0.5 Z"/></g>
<g><path style="opacity:1" fill="#fe9900" d="M 3.5,3.5 C 56.1667,3.5 108.833,3.5 161.5,3.5C 161.667,47.8346 161.5,92.1679 161,136.5C 159.963,141.649 158.463,146.649 156.5,151.5C 148.338,135.176 140.171,118.842 132,102.5C 124.091,120.649 115.924,138.649 107.5,156.5C 98.8789,139.592 90.5455,122.592 82.5,105.5C 73.6553,122.672 64.9886,140.005 56.5,157.5C 48.0737,139.648 39.4071,121.982 30.5,104.5C 22.7262,118.96 15.2262,133.626 8,148.5C 6.03168,144.04 4.69835,139.373 4,134.5C 3.50001,90.8346 3.33334,47.1679 3.5,3.5 Z"/></g>
<g><path style="opacity:1" fill="#000000" d="M 42.5,73.5 C 37.4241,69.6894 37.2574,65.6894 42,61.5C 43.876,62.619 44.7093,64.2856 44.5,66.5C 46.9477,66.9153 48.2811,65.9153 48.5,63.5C 46.2716,58.7112 43.7716,54.0445 41,49.5C 40.3752,31.0603 48.2085,26.2269 64.5,35C 66.6499,36.6491 68.6499,38.4824 70.5,40.5C 70.8333,40.1667 71.1667,39.8333 71.5,39.5C 67.9766,33.5936 66.8099,27.2603 68,20.5C 70.1332,15.1994 73.9665,11.8661 79.5,10.5C 81.1667,6.5 82.8333,6.5 84.5,10.5C 96.8634,13.4258 101.03,21.0925 97,33.5C 96.6258,34.4162 96.1258,35.2496 95.5,36C 100.553,34.0452 105.886,32.5452 111.5,31.5C 121.589,33.4335 125.422,39.4335 123,49.5C 120.605,54.4588 118.105,59.2921 115.5,64C 115.734,65.7324 116.734,66.5658 118.5,66.5C 121.104,65.731 122.938,64.0643 124,61.5C 126.454,66.1381 125.621,70.1381 121.5,73.5C 115.351,75.6755 111.184,73.6755 109,67.5C 108.667,63.1667 108.333,58.8333 108,54.5C 106.004,50.461 103.17,49.6277 99.5,52C 92.5712,58.3712 90.0712,66.2046 92,75.5C 94.7864,77.1842 96.6198,76.5175 97.5,73.5C 96.3489,71.6746 95.6822,69.6746 95.5,67.5C 98.505,67.253 101.005,68.253 103,70.5C 107.166,81.876 103.332,87.2093 91.5,86.5C 92.2692,94.1875 88.9359,98.3541 81.5,99C 76.941,96.0996 74.441,91.9329 74,86.5C 64.7976,87.965 60.7976,83.965 62,74.5C 63.8013,70.4613 66.6346,68.4613 70.5,68.5C 69.484,71.1337 69.484,73.8004 70.5,76.5C 71.5,76.5 72.5,76.5 73.5,76.5C 76.0388,65.5828 72.5388,57.2494 63,51.5C 60.9287,52.3639 59.262,53.6972 58,55.5C 57.0595,61.5195 56.0595,67.5195 55,73.5C 50.4894,78.7432 46.3227,78.7432 42.5,73.5 Z"/></g>
<g><path style="opacity:1" fill="#003266" d="M 42.5,73.5 C 41.9862,71.6336 41.3195,69.8003 40.5,68C 41,66.5 41.5,65 42,63.5C 42.4481,67.803 44.6148,69.1363 48.5,67.5C 49.6517,64.8938 49.8184,62.2272 49,59.5C 45.0352,55.0723 42.8685,49.9056 42.5,44C 42.9598,35.0936 47.6265,31.427 56.5,33C 67.1264,37.628 74.293,45.4614 78,56.5C 78.0443,49.2929 76.0443,42.6263 72,36.5C 69.0316,30.1863 68.865,23.853 71.5,17.5C 74.7963,14.8106 78.2963,12.4773 82,10.5C 84.7716,12.7611 87.9382,14.2611 91.5,15C 92.6667,16.1667 93.8333,17.3333 95,18.5C 95.6667,23.5 95.6667,28.5 95,33.5C 92.3798,38.5747 89.8798,43.7413 87.5,49C 86.4826,51.7866 86.3159,54.62 87,57.5C 89.0305,42.5763 97.5305,34.5763 112.5,33.5C 121.241,36.6684 123.741,42.6684 120,51.5C 118.729,54.4326 117.062,57.0993 115,59.5C 112.457,63.8736 113.457,66.8736 118,68.5C 120.464,67.9335 122.631,67.1002 124.5,66C 122.674,71.2282 119.007,72.8948 113.5,71C 112.667,70.1667 111.833,69.3333 111,68.5C 110.667,63.8333 110.333,59.1667 110,54.5C 107.777,49.4604 104.277,47.9604 99.5,50C 90.8233,56.6864 87.6566,65.5197 90,76.5C 94.4717,79.6205 97.6383,78.6205 99.5,73.5C 98.0486,68.5191 98.882,68.1858 102,72.5C 104.498,82.5023 100.665,86.5023 90.5,84.5C 90.8804,90.7406 88.3804,95.4073 83,98.5C 77.6425,94.1138 75.3092,88.4472 76,81.5C 74.0915,85.4896 71.0915,86.4896 67,84.5C 63.664,81.6008 62.664,77.9341 64,73.5C 64.6891,72.6433 65.5224,71.9767 66.5,71.5C 67.4527,74.4286 69.1193,76.762 71.5,78.5C 75.0105,77.3312 76.6772,74.8312 76.5,71C 76.382,62.2589 72.7154,55.5923 65.5,51C 62.15,50.0701 59.3167,50.9035 57,53.5C 55.0459,58.9709 54.0459,64.6375 54,70.5C 51.3009,75.8729 47.4676,76.8729 42.5,73.5 Z"/></g>
<g><path style="opacity:1" fill="#006632" d="M 30.5,107.5 C 38.64,125.779 47.3067,143.779 56.5,161.5C 65.4954,144.173 73.9954,126.506 82,108.5C 89.7844,125.856 97.9511,143.022 106.5,160C 107.332,160.688 107.998,160.521 108.5,159.5C 116.337,141.94 124.337,124.607 132.5,107.5C 139.984,122.469 147.484,137.469 155,152.5C 153.172,160.364 149.505,167.364 144,173.5C 119.615,201.057 89.7815,209.224 54.5,198C 32.9982,188.665 17.6648,173.165 8.5,151.5C 15.6471,136.716 22.9804,122.049 30.5,107.5 Z"/></g>
<g><path style="opacity:1" fill="#fefffe" d="M -0.5,131.5 C 6.67281,171.67 30.0061,196.67 69.5,206.5C 46.1667,206.5 22.8333,206.5 -0.5,206.5C -0.5,181.5 -0.5,156.5 -0.5,131.5 Z"/></g>
<g><path style="opacity:1" fill="#fefffe" d="M 165.5,132.5 C 165.5,157.167 165.5,181.833 165.5,206.5C 142.167,206.5 118.833,206.5 95.5,206.5C 134.599,196.735 157.932,172.068 165.5,132.5 Z"/></g>
</svg>

<svg xmlns="http://www.w3.org/2000/svg" width="166" height="207" style="shape-rendering:geometricPrecision;text-rendering:geometricPrecision;image-rendering:optimizeQuality;fill-rule:evenodd;clip-rule:evenodd"><path style="opacity:1" d="M-.5-.5h166v133c-7.568 39.568-30.901 64.235-70 74h-26c-39.494-9.83-62.827-34.83-70-75V-.5z"/><path style="opacity:1" fill="#fe9900" d="M3.5 3.5h158c.167 44.335 0 88.668-.5 133a84.237 84.237 0 0 1-4.5 15l-24.5-49a1979.608 1979.608 0 0 1-24.5 54 1798.831 1798.831 0 0 1-25-51 2433.72 2433.72 0 0 0-26 52 1953.754 1953.754 0 0 0-26-53 1204.313 1204.313 0 0 0-22.5 44 53.2 53.2 0 0 1-4-14c-.5-43.665-.667-87.332-.5-131z"/><path style="opacity:1" d="M42.5 73.5c-5.076-3.81-5.243-7.81-.5-12 1.876 1.119 2.71 2.786 2.5 5 2.448.415 3.781-.585 4-3a141.622 141.622 0 0 0-7.5-14c-.625-18.44 7.209-23.273 23.5-14.5a46.656 46.656 0 0 1 6 5.5l1-1c-3.523-5.906-4.69-12.24-3.5-19 2.133-5.3 5.966-8.634 11.5-10 1.667-4 3.333-4 5 0 12.363 2.926 16.53 10.593 12.5 23a9.468 9.468 0 0 1-1.5 2.5c5.053-1.955 10.386-3.455 16-4.5 10.089 1.934 13.922 7.934 11.5 18a294.397 294.397 0 0 1-7.5 14.5c.234 1.732 1.234 2.566 3 2.5 2.604-.769 4.438-2.436 5.5-5 2.454 4.638 1.621 8.638-2.5 12-6.149 2.175-10.316.175-12.5-6l-1-13c-1.996-4.039-4.83-4.872-8.5-2.5-6.929 6.371-9.429 14.205-7.5 23.5 2.786 1.684 4.62 1.017 5.5-2a13.143 13.143 0 0 1-2-6c3.005-.247 5.505.753 7.5 3 4.166 11.376.332 16.71-11.5 16 .77 7.688-2.564 11.854-10 12.5-4.559-2.9-7.059-7.067-7.5-12.5-9.202 1.465-13.202-2.535-12-12 1.801-4.039 4.635-6.039 8.5-6-1.016 2.634-1.016 5.3 0 8h3c2.539-10.917-.961-19.25-10.5-25-2.071.864-3.738 2.197-5 4-.94 6.02-1.94 12.02-3 18-4.51 5.243-8.677 5.243-12.5 0z"/><path style="opacity:1" fill="#003266" d="M42.5 73.5a36.899 36.899 0 0 0-2-5.5l1.5-4.5c.448 4.303 2.615 5.636 6.5 4 1.152-2.606 1.318-5.273.5-8-3.965-4.428-6.132-9.594-6.5-15.5.46-8.906 5.127-12.573 14-11C67.126 37.628 74.293 45.461 78 56.5c.044-7.207-1.956-13.874-6-20-2.968-6.314-3.135-12.647-.5-19a65.008 65.008 0 0 1 10.5-7c2.772 2.261 5.938 3.761 9.5 4.5l3.5 3.5c.667 5 .667 10 0 15A333.34 333.34 0 0 0 87.5 49c-1.017 2.787-1.184 5.62-.5 8.5 2.03-14.924 10.53-22.924 25.5-24 8.741 3.168 11.241 9.168 7.5 18a31.319 31.319 0 0 1-5 8c-2.543 4.374-1.543 7.374 3 9 2.464-.567 4.631-1.4 6.5-2.5-1.826 5.228-5.493 6.895-11 5l-2.5-2.5-1-14c-2.223-5.04-5.723-6.54-10.5-4.5-8.677 6.686-11.843 15.52-9.5 26.5 4.472 3.12 7.638 2.12 9.5-3-1.451-4.98-.618-5.314 2.5-1 2.498 10.002-1.335 14.002-11.5 12 .38 6.24-2.12 10.907-7.5 14-5.358-4.386-7.69-10.053-7-17-1.909 3.99-4.909 4.99-9 3-3.336-2.9-4.336-6.566-3-11a7.253 7.253 0 0 1 2.5-2c.953 2.929 2.62 5.262 5 7 3.51-1.169 5.177-3.669 5-7.5-.118-8.741-3.785-15.408-11-20-3.35-.93-6.183-.096-8.5 2.5a51.378 51.378 0 0 0-3 17c-2.7 5.373-6.532 6.373-11.5 3z"/><path style="opacity:1" fill="#006632" d="M30.5 107.5a1005.461 1005.461 0 0 0 26 54 971.463 971.463 0 0 0 25.5-53 1271.541 1271.541 0 0 0 24.5 51.5c.832.688 1.498.521 2-.5a2250.515 2250.515 0 0 1 24-52l22.5 45c-1.828 7.864-5.495 14.864-11 21-24.385 27.557-54.219 35.724-89.5 24.5-21.502-9.335-36.835-24.835-46-46.5a1840.654 1840.654 0 0 1 22-44z"/><path style="opacity:1" fill="#fefffe" d="M-.5 131.5c7.173 40.17 30.506 65.17 70 75h-70v-75zM165.5 132.5v74h-70c39.099-9.765 62.432-34.432 70-74z"/></svg>
